public/avatar/hat/195.svg

<svg xmlns:xlink="http://www.w3.org/1999/xlink" height="92.9" width="100.7" xmlns="http://www.w3.org/2000/svg"><g transform="translate(38.65 49.75)"><use height="24.95" transform="translate(-18.5 -3.7)" width="42.7" xlink:href="#a"/><use height="21.75" transform="translate(-17.6 -2.9)" width="39.1" xlink:href="#b"/><use height="19.2" transform="translate(-16.35 -2.6)" width="31.9" xlink:href="#c"/><use height="17.2" transform="translate(-15.95 -1.85)" width="31" xlink:href="#d"/><use height="6.3" transform="translate(4.55 5.95)" width="5" xlink:href="#e"/><use height="4.95" transform="translate(5.2 6.45)" width="3.8" xlink:href="#f"/><use height="19.8" transform="translate(-17.75 -1.2)" width="39.25" xlink:href="#g"/><use height="3.8" transform="translate(5.35 6.8)" width="3.05" xlink:href="#h"/></g><defs><use height="24.95" width="42.7" xlink:href="#i" id="a"/><use height="21.75" width="39.1" xlink:href="#j" id="b"/><use height="19.2" width="31.9" xlink:href="#k" id="c"/><use height="17.2" width="31" xlink:href="#l" id="d"/><use height="6.3" width="5" xlink:href="#m" id="e"/><use height="4.95" width="3.8" xlink:href="#n" id="f"/><use height="19.8" width="39.25" xlink:href="#o" id="g"/><use height="4.95" transform="scale(.5648 .7677)" width="5.4" xlink:href="#p" id="h"/><path d="m23.85 17.6-12-6.2q-.7-.55-1.9 2.7-1.35 3.45-.7 6.7L7.1 18.05l-.45 1.8q-.3 2.35.45 5.25-1.85-1.2-2.95-3.15l-.7-1.65-.8 1.4Q1.9 23.5 2 25.2-1 18.05.45 13.1q.95-1.4 4.4-3.3l3.2-1.6L9.3 4.85q1.55-3.5 2.9-4.25l6.9-.35q5.4.6 7.8 2.15l6.8 6.3q5.35 5.15 9 6.6l-8.4.75 2.3 1.2q2.7 1.2 4.7 1.3-3.65 1.65-7.65 1.3-4.55-.45-7.55-3.45-1.65-1.7-4.35-3.45l-2.4-1.4 1.75 1.8q1.9 2.2 2.75 4.25" fill="#1b191c" fill-rule="evenodd" transform="translate(0 -.25)" id="i"/><path d="M25.5 2.25q1.1.7 4.2 4.1 4.7 5.3 9.4 7.55l-7.6.7 1.35 1.2q.1.2 4.5 2-2.9.65-6.2-.05-3.5-.8-5.25-2.7-1.55-1.7-5.5-3.95-3.15-1.8-3.8-1.95l4.15 5.5-2.75-1.4q-6.25-3.2-6.55-3.4-.6-.5-1.25 0-.95.55-1.8 2.7-.95 2.3-1.05 4.8l-.4-.6-.75-1.45-.8 1.75q-.6 1.8-.6 3.3l.1 1.6-1.5-2.7-.45-1.75-1.05 1.4q-.45.45-1.05 2.05-.85-3.1-.85-5.6 0-1.5.35-2.7Q1.95 10.5 7.5 8.1l.35-.15.1-.35Q9.9 1.5 11.7.45L18.1.2q5.15.55 7.4 2.05" fill="gold" fill-rule="evenodd" transform="translate(0 -.2)" id="j"/><path d="M28.3 7.55q2.45 2.95 3.6 3.8l-7.25-4.5-2.8-2.1q1.45 1.15 3.05 3.4l2.15 3.1 4.7 4.95q-3.7 0-7.05-2.8-7.1-5.85-9.7-6-1.05-.05 1.2 2.85l2.5 2.9-4.3-2.3q-4.45-2.3-4.95-2.1-.95.4-2.15 1.9-1.55 1.95-1.55 3.9-.95-.85-1-1.4l.15-.4-1.2 2.4q-1.2 2.65-.9 4.05-.85-1.9-1.05-3.5v-1.25L.1 17.5q-.35-4.35.45-5.45l5.6-3.55-3.75 3.05q.9-.35 1.75-.75l-.45.7q-.45.95-.4 2.15 2.8-6.3 4.65-5.2L9.5 7.4q1.15-.85 2.05-.5-.8-.75-.2-1.65.65-.9 2.2-1.2-2.15.25-3.7 1.25l-1.1.9q1-3 2.55-4.8-2.4 1.75-4 4.8.45-1.6 1.35-3.2 1.85-3.2 4.4-3 8.7.75 11.5 3.3l3.75 4.25m-6.45-2.8-.2-.15.2.15" fill="#ffff5b" fill-rule="evenodd" id="k"/><path d="m1.75 3.75.65.6.35-.35.05-.4-.55-.35-.5.5m-.8 1.6Q-.3 4 .1 3.3.8 1.95 2.8.75q2-1.2 2.15-.5.2.9-.35 2.95-.55 2.35-1.45 2.9-.95.6-2.2-.75m2.7-3.15q.35-.35.1-.6l-.45.35.35.25" fill="#1b191c" fill-rule="evenodd" id="m"/><path d="m2.1 4.95-.8-.15Q0 4 0 3.05 1.15.85 3.8 0q-.15 4-1.7 4.95M2.45 3q-.7-.6-.9-.55-.6 0-.75.75l1 1q.45 0 .65-1.2m.65-1.05q.2 0 .2-1.15l-.9.65q.15.5.7.5" fill="#ff9500" fill-rule="evenodd" id="n"/><path d="M1.1 4.95q-1.85-1.2-.55-2.3Q4.7-.6 5.4.15q.3.3-4.7 3.3l.4 1.5" fill="#fff" fill-rule="evenodd" id="p"/><g id="l" fill="#ffb" fill-rule="evenodd"><path d="M1.4 12.75 0 14.7q.15-2.2.8-3.15.5-.65.7 0 .2.6-.1 1.2m.8 4.45-.35-1.3q-.25-1.4.35-1.85.8-.55 0 3.15m4.05-8.35q.5-.5.9 0 .35.45.1.75-1.6 1.9-2.05 4-1.1-1.55-.15-3.3l1.2-1.45m4.3-2q1.95-1.5 6.65 5.05-3.1-1.55-5.2-3.25-1.8-1.5-1.45-1.8M22.4 10.6l-4.8-3.15q-2.2-1.4-1.8-2.05.55-.85 3.15.35 2.75 1.25 4.5 3.4 3.7 4.45 7.55 6.1-3.2-.55-8.6-4.65m-8.75-8.55q4.25-1.5 8.95.75 1.9.85 6.35 6.05-.65 0-5.7-4.2Q21 2.75 17.1 2.2l-3.45-.15"/><path d="M16.5.1q1.7.3 3.1.95l-3.1-.5-3.05.4-1.55.55Q13.15-.45 16.5.1m-1.6 3.05q.7-.95 3-.3 2.45.65 3.5 2.5-1.7-1.5-4.25-2l-2.25-.2"/></g><g id="o" fill="#ff6d00" fill-rule="evenodd"><path d="m29.4 15.15 8.1.75q-3.25.65-6 0l-2.1-.75m-3.6-9.8 1.8 1.6Q30 8.7 32.7 9.5q-4.65-.15-6.9-4.15M13.05 3.9q3.1-2.75 7.75-.5l-2.95-.2q.8.15 2.9 1.2-2.45-1.05-5.35-.95l-2.35.45m-1-1.9q.4-.65 1.25-1.2 1.75-1.1 4.15-.65L12.05 2m20.65 9.7-3.1-1.85q2.65 1.7 9.65 2.15-6.5 1.3-9.4-.65l2.3.5q.95.1.55-.15m-26.75.7-.65 2.5q-.6 2.95-.25 4.9-1.3-1.85-.35-4.8l1.25-2.6M1 19.05q-2.15-5.15.35-7.75-1 3.65-.35 7.75"/><path d="M10.8 5.7q2.5-2.8 5.25.85-1.35-1.3-3.45-1.2l-1.8.35m-1.5.85L6.7 8.3l1.6-1.8-2.8.8 3.45-1.45Q8.8 4.8 10.8 2.9q-1.65 2-1.5 3.65"/></g></defs></svg>

<?xml version="1.0" encoding="UTF-8" standalone="no"?>
<svg xmlns:xlink="http://www.w3.org/1999/xlink" height="92.9px" width="100.7px" xmlns="http://www.w3.org/2000/svg">
  <g transform="matrix(1.0, 0.0, 0.0, 1.0, 38.65, 49.75)">
    <use height="24.95" transform="matrix(1.0, 0.0, 0.0, 1.0, -18.5, -3.7)" width="42.7" xlink:href="#sprite0"/>
    <use height="21.75" transform="matrix(1.0, 0.0, 0.0, 1.0, -17.6, -2.9)" width="39.1" xlink:href="#sprite1"/>
    <use height="19.2" transform="matrix(1.0, 0.0, 0.0, 1.0, -16.35, -2.6)" width="31.9" xlink:href="#sprite2"/>
    <use height="17.2" transform="matrix(1.0, 0.0, 0.0, 1.0, -15.95, -1.85)" width="31.0" xlink:href="#sprite3"/>
    <use height="6.3" transform="matrix(1.0, 0.0, 0.0, 1.0, 4.55, 5.95)" width="5.0" xlink:href="#sprite4"/>
    <use height="4.95" transform="matrix(1.0, 0.0, 0.0, 1.0, 5.2, 6.45)" width="3.8" xlink:href="#sprite5"/>
    <use height="19.8" transform="matrix(1.0, 0.0, 0.0, 1.0, -17.75, -1.2)" width="39.25" xlink:href="#sprite6"/>
    <use height="3.8" transform="matrix(1.0, 0.0, 0.0, 1.0, 5.35, 6.8)" width="3.05" xlink:href="#sprite7"/>
  </g>
  <defs>
    <g id="sprite0" transform="matrix(1.0, 0.0, 0.0, 1.0, 0.0, -0.25)">
      <use height="24.95" transform="matrix(1.0, 0.0, 0.0, 1.0, 0.0, 0.25)" width="42.7" xlink:href="#shape0"/>
    </g>
    <g id="shape0" transform="matrix(1.0, 0.0, 0.0, 1.0, 0.0, -0.25)">
      <path d="M23.85 17.6 L11.85 11.4 Q11.15 10.85 9.95 14.1 8.6 17.55 9.25 20.8 L7.1 18.05 6.65 19.85 Q6.35 22.2 7.1 25.1 5.25 23.9 4.15 21.95 L3.45 20.3 2.65 21.7 Q1.9 23.5 2.0 25.2 -1.0 18.05 0.45 13.1 1.4 11.7 4.85 9.8 L8.05 8.2 9.3 4.85 Q10.85 1.35 12.2 0.6 L19.1 0.25 Q24.5 0.85 26.9 2.4 L33.7 8.7 Q39.05 13.85 42.7 15.3 L34.3 16.05 36.6 17.25 Q39.3 18.45 41.3 18.55 37.65 20.2 33.65 19.85 29.1 19.4 26.1 16.4 24.45 14.7 21.75 12.95 L19.35 11.55 21.1 13.35 Q23.0 15.55 23.85 17.6" fill="#1b191c" fill-rule="evenodd" stroke="none"/>
    </g>
    <g id="sprite1" transform="matrix(1.0, 0.0, 0.0, 1.0, 0.0, -0.2)">
      <use height="21.75" transform="matrix(1.0, 0.0, 0.0, 1.0, 0.0, 0.2)" width="39.1" xlink:href="#shape1"/>
    </g>
    <g id="shape1" transform="matrix(1.0, 0.0, 0.0, 1.0, 0.0, -0.2)">
      <path d="M25.5 2.25 Q26.6 2.95 29.7 6.35 34.4 11.65 39.1 13.9 L31.5 14.6 32.85 15.8 Q32.95 16.0 37.35 17.8 34.45 18.45 31.15 17.75 27.65 16.95 25.9 15.05 24.35 13.35 20.4 11.1 17.25 9.3 16.6 9.15 L20.75 14.65 18.0 13.25 Q11.75 10.05 11.45 9.85 10.85 9.35 10.2 9.85 9.25 10.4 8.4 12.55 7.45 14.85 7.35 17.35 L6.95 16.75 6.2 15.3 5.4 17.05 Q4.8 18.85 4.8 20.35 L4.9 21.95 3.4 19.25 2.95 17.5 1.9 18.9 Q1.45 19.35 0.85 20.95 0.0 17.85 0.0 15.35 0.0 13.85 0.35 12.65 1.95 10.5 7.5 8.1 L7.85 7.95 7.95 7.6 Q9.9 1.5 11.7 0.45 L18.1 0.2 Q23.25 0.75 25.5 2.25" fill="#ffd700" fill-rule="evenodd" stroke="none"/>
    </g>
    <g id="sprite2" transform="matrix(1.0, 0.0, 0.0, 1.0, 0.0, 0.0)">
      <use height="19.2" transform="matrix(1.0, 0.0, 0.0, 1.0, 0.0, 0.0)" width="31.9" xlink:href="#shape2"/>
    </g>
    <g id="shape2" transform="matrix(1.0, 0.0, 0.0, 1.0, 0.0, 0.0)">
      <path d="M28.3 7.55 Q30.75 10.5 31.9 11.35 L24.65 6.85 21.85 4.75 Q23.3 5.9 24.9 8.15 L27.05 11.25 31.75 16.2 Q28.05 16.2 24.7 13.4 17.6 7.55 15.0 7.4 13.95 7.35 16.2 10.25 L18.7 13.15 14.4 10.85 Q9.95 8.55 9.45 8.75 8.5 9.15 7.3 10.65 5.75 12.6 5.75 14.55 4.8 13.7 4.75 13.15 L4.9 12.75 3.7 15.15 Q2.5 17.8 2.8 19.2 1.95 17.3 1.75 15.7 L1.75 14.45 0.1 17.5 Q-0.25 13.15 0.55 12.05 L6.15 8.5 2.4 11.55 Q3.3 11.2 4.15 10.8 L3.7 11.5 Q3.25 12.45 3.3 13.65 6.1 7.35 7.95 8.45 L9.5 7.4 Q10.65 6.55 11.55 6.9 10.75 6.15 11.35 5.25 12.0 4.35 13.55 4.05 11.4 4.3 9.85 5.3 L8.75 6.2 Q9.75 3.2 11.3 1.4 8.9 3.15 7.3 6.2 7.75 4.6 8.65 3.0 10.5 -0.2 13.05 0.0 21.75 0.75 24.55 3.3 L28.3 7.55 M21.85 4.75 L21.65 4.6 21.85 4.75" fill="#ffff5b" fill-rule="evenodd" stroke="none"/>
    </g>
    <g id="sprite3" transform="matrix(1.0, 0.0, 0.0, 1.0, 0.0, 0.0)">
      <use height="17.2" transform="matrix(1.0, 0.0, 0.0, 1.0, 0.0, 0.0)" width="31.0" xlink:href="#shape3"/>
    </g>
    <g id="shape3" transform="matrix(1.0, 0.0, 0.0, 1.0, 0.0, 0.0)">
      <path d="M1.4 12.75 L0.0 14.7 Q0.15 12.5 0.8 11.55 1.3 10.9 1.5 11.55 1.7 12.15 1.4 12.75" fill="#ffffbb" fill-rule="evenodd" stroke="none"/>
      <path d="M2.2 17.2 L1.85 15.9 Q1.6 14.5 2.2 14.05 3.0 13.5 2.2 17.2" fill="#ffffbb" fill-rule="evenodd" stroke="none"/>
      <path d="M6.25 8.85 Q6.75 8.35 7.15 8.85 7.5 9.3 7.25 9.6 5.65 11.5 5.2 13.6 4.1 12.05 5.05 10.3 L6.25 8.85" fill="#ffffbb" fill-rule="evenodd" stroke="none"/>
      <path d="M10.55 6.85 Q12.5 5.35 17.2 11.9 14.1 10.35 12.0 8.65 10.2 7.15 10.55 6.85" fill="#ffffbb" fill-rule="evenodd" stroke="none"/>
      <path d="M22.4 10.6 L17.6 7.45 Q15.4 6.05 15.8 5.4 16.35 4.55 18.95 5.75 21.7 7.0 23.45 9.15 27.15 13.6 31.0 15.25 27.8 14.7 22.4 10.6" fill="#ffffbb" fill-rule="evenodd" stroke="none"/>
      <path d="M13.65 2.05 Q17.9 0.55 22.6 2.8 24.5 3.65 28.95 8.85 28.3 8.85 23.25 4.65 21.0 2.75 17.1 2.2 L13.65 2.05" fill="#ffffbb" fill-rule="evenodd" stroke="none"/>
      <path d="M16.5 0.1 Q18.2 0.4 19.6 1.05 L16.5 0.55 13.45 0.95 11.9 1.5 Q13.15 -0.45 16.5 0.1" fill="#ffffbb" fill-rule="evenodd" stroke="none"/>
      <path d="M14.9 3.15 Q15.6 2.2 17.9 2.85 20.35 3.5 21.4 5.35 19.7 3.85 17.15 3.35 L14.9 3.15" fill="#ffffbb" fill-rule="evenodd" stroke="none"/>
    </g>
    <g id="sprite4" transform="matrix(1.0, 0.0, 0.0, 1.0, 0.0, 0.0)">
      <use height="6.3" transform="matrix(1.0, 0.0, 0.0, 1.0, 0.0, 0.0)" width="5.0" xlink:href="#shape4"/>
    </g>
    <g id="shape4" transform="matrix(1.0, 0.0, 0.0, 1.0, 0.0, 0.0)">
      <path d="M1.75 3.75 L2.4 4.35 2.75 4.0 2.8 3.6 2.25 3.25 1.75 3.75 M0.95 5.35 Q-0.3 4.0 0.1 3.3 0.8 1.95 2.8 0.75 4.8 -0.45 4.95 0.25 5.15 1.15 4.6 3.2 4.05 5.55 3.15 6.1 2.2 6.7 0.95 5.35 M3.65 2.2 Q4.0 1.85 3.75 1.6 L3.3 1.95 3.65 2.2" fill="#1b191c" fill-rule="evenodd" stroke="none"/>
    </g>
    <g id="sprite5" transform="matrix(1.0, 0.0, 0.0, 1.0, 0.0, 0.0)">
      <use height="4.95" transform="matrix(1.0, 0.0, 0.0, 1.0, 0.0, 0.0)" width="3.8" xlink:href="#shape5"/>
    </g>
    <g id="shape5" transform="matrix(1.0, 0.0, 0.0, 1.0, 0.0, 0.0)">
      <path d="M2.1 4.95 L1.3 4.8 Q0.0 4.0 0.0 3.05 1.15 0.85 3.8 0.0 3.65 4.0 2.1 4.95 M2.45 3.0 Q1.75 2.4 1.55 2.45 0.95 2.45 0.8 3.2 L1.8 4.2 Q2.25 4.2 2.45 3.0 M3.1 1.95 Q3.3 1.95 3.3 0.8 L2.4 1.45 Q2.55 1.95 3.1 1.95" fill="#ff9500" fill-rule="evenodd" stroke="none"/>
    </g>
    <g id="sprite6" transform="matrix(1.0, 0.0, 0.0, 1.0, 0.0, 0.0)">
      <use height="19.8" transform="matrix(1.0, 0.0, 0.0, 1.0, 0.0, 0.0)" width="39.25" xlink:href="#shape6"/>
    </g>
    <g id="shape6" transform="matrix(1.0, 0.0, 0.0, 1.0, 0.0, 0.0)">
      <path d="M29.4 15.15 L37.5 15.9 Q34.25 16.55 31.5 15.9 L29.4 15.15" fill="#ff6d00" fill-rule="evenodd" stroke="none"/>
      <path d="M25.8 5.35 L27.6 6.95 Q30.0 8.7 32.7 9.5 28.05 9.35 25.8 5.35" fill="#ff6d00" fill-rule="evenodd" stroke="none"/>
      <path d="M13.05 3.9 Q16.15 1.15 20.8 3.4 L17.85 3.2 Q18.65 3.35 20.75 4.4 18.3 3.35 15.4 3.45 L13.05 3.9" fill="#ff6d00" fill-rule="evenodd" stroke="none"/>
      <path d="M12.05 2.0 Q12.45 1.35 13.3 0.8 15.05 -0.3 17.45 0.15 L12.05 2.0" fill="#ff6d00" fill-rule="evenodd" stroke="none"/>
      <path d="M32.7 11.7 L29.6 9.85 Q32.25 11.55 39.25 12.0 32.75 13.3 29.85 11.35 L32.15 11.85 Q33.1 11.95 32.7 11.7" fill="#ff6d00" fill-rule="evenodd" stroke="none"/>
      <path d="M5.95 12.4 L5.3 14.9 Q4.7 17.85 5.05 19.8 3.75 17.95 4.7 15.0 L5.95 12.4" fill="#ff6d00" fill-rule="evenodd" stroke="none"/>
      <path d="M1.0 19.05 Q-1.15 13.9 1.35 11.3 0.35 14.95 1.0 19.05" fill="#ff6d00" fill-rule="evenodd" stroke="none"/>
      <path d="M10.8 5.7 Q13.3 2.9 16.05 6.55 14.7 5.25 12.6 5.35 L10.8 5.7" fill="#ff6d00" fill-rule="evenodd" stroke="none"/>
      <path d="M9.3 6.55 L6.7 8.3 8.3 6.5 5.5 7.3 8.95 5.85 Q8.8 4.8 10.8 2.9 9.15 4.9 9.3 6.55" fill="#ff6d00" fill-rule="evenodd" stroke="none"/>
    </g>
    <g id="sprite7" transform="matrix(1.0, 0.0, 0.0, 1.0, 0.0, 0.0)">
      <use height="4.95" transform="matrix(0.5648, 0.0, 0.0, 0.7677, 0.0, 0.0)" width="5.4" xlink:href="#shape7"/>
    </g>
    <g id="shape7" transform="matrix(1.0, 0.0, 0.0, 1.0, 0.0, 0.0)">
      <path d="M1.1 4.95 Q-0.75 3.75 0.55 2.65 4.7 -0.6 5.4 0.15 5.7 0.45 0.7 3.45 L1.1 4.95" fill="#ffffff" fill-rule="evenodd" stroke="none"/>
    </g>
  </defs>
</svg>
